X:1
T:Praise to the Lord, the Almighty
T:Text: Joachim Neander, 1680; tr. Catherine Winkworth, 1863, alt. Tune: Ernwerten Gesangbuch, Stralsund, 1665
T:14 14 478 LOBE DEN HERREN www.hymnary.org/text/praise_to_the_lord_the_almighty_the_king
T:Praise to the Lord, the Almighty
T:This hymn is in the public domain. You may freely use this score for personal and congregational worship. If you reproduce the score, please credit Hymnary.org as the source. 
T:This hymn is in the public domain. You may freely use this score for personal and congregational worship. If you reproduce the score, please credit Hymnary.org as the source. 
Z:This hymn is in the public domain. You may freely use this score for personal and congregational worship. If you reproduce the score, please credit Hymnary.org as the source.
%%score ( 1 2 ) ( 3 4 )
L:1/8
M:3/4
K:F
V:1 treble nm="SOPRANO ALTO" snm="S. A."
V:2 treble 
V:3 bass nm="TENOR BASS" snm="T. B."
V:4 bass 
V:1
"^1""^2""^3""^4" F2 F2 c2 | A3 G F2 | E2 D2 C2 | D2 E2 F2 | G6 | F6 | F2 F2 c2 | A3 G F2 | %8
w: Praise to the|Lord, the Al-|might- y, the|King of cre-|a-|tion!|O my soul,|praise him, for|
w: Praise to the|Lord, who o'er|all things is|won- drous- ly|reign-|ing,|shel- tering you|un- der his|
w: Praise to the|Lord, who will|pros- per your|work and de-|fend|you;|sure- ly his|good- ness and|
w: Praise to the|Lord! O let|all that is|in me a-|dore|him!|All that has|life and breath,|
 E2 D2 C2 | D2 E2 F2 | G6 | F6 | c2 c2 c2 | d6 | A2 B2 c2 |1 c2 B2 A2 | G6 | C2 D2 E2 | F2 G2 A2 | %19
w: he is your|health and sal-|va-|tion!|Come, all who|hear;|broth- ers and|sis- ters, draw|near,|join me in|glad a- do-|
w: wings, oh, so|gent- ly sus-|tain-|ing.|Have you not|seen|all that is|need- ful has|been|sent by his|gra- cious or-|
w: mer- cy shall|dai- ly at-|tend|you.|Pon- der a-|new|what the Al-|might- y can|do|as with his|love he be-|
w: come now with|prais- es be-|fore|him!|Let the a-|men|sound from his|peo- ple a-|gain.|Glad- ly for-|ev- er a-|
 G6 | F6 |] %21
w: ra-|tion!|
w: dain-|ing?|
w: friends|you.|
w: dore|him!|
V:2
 C2 D2 C2 | F3 E D2 | C2 B,2 A,2 | B,2 B,2 A,2 | (D2 C2 B,2) | A,6 | C2 D2 C2 | F3 E D2 | %8
 C2 B,2 A,2 | B,2 B,2 A,2 | (D2 C2 B,2) | A,6 | F2 G2 F2 | F6 | F2 F2 G2 |1 F2 DE F2 | E6 | %17
 C2 B,2 B,2 | A,2 D2 ^C2 | (D4 =C2) | A,6 |] %21
V:3
 A,2 A,2 G,2 | C3 C A,2 | A,2 F,2 F,2 | F,2 G,2 F,2 | (F,2 E,4) | F,6 | A,2 A,2 G,2 | C3 C A,2 | %8
 A,2 F,2 F,2 | F,2 G,2 F,2 | (F,2 E,4) | F,6 | A,2 G,2 A,2 | B,6 | C2 B,2 G,2 |1 A,2 B,2 C2 | C6 | %17
 F,2 F,2 G,2 | F,2 D,2 E,2 | (D,2 G,F, E,2) | F,6 |] %21
V:4
 F,2 D,2 E,2 | F,3 C, D,2 | A,,2 B,,2 F,,2 | B,,2 G,,2 D,2 | (B,,2 C,4) | F,,6 | F,2 D,2 E,2 | %7
 F,3 C, D,2 | A,,2 B,,2 F,,2 | B,,2 G,,2 D,2 | (B,,2 C,4) | F,,6 | F,2 E,2 F,2 | B,,6 | %14
 F,2 D,2 E,2 |1 F,2 G,2 A,2 | C,6 | A,,2 B,,2 G,,2 | D,2 B,,2 A,,2 | (B,,4 C,2) | F,,6 |] %21

